src/renderer/assets/icon/exit-default-icon.svg

<?xml version="1.0" encoding="UTF-8"?>
<svg width="30px" height="30px" viewBox="0 0 30 30" version="1.1" xmlns="http://www.w3.org/2000/svg" xmlns:xlink="http://www.w3.org/1999/xlink">
    <!-- Generator: Sketch 58 (84663) - https://sketch.com -->
    <desc>Created with Sketch.</desc>
    <g id="sidebar/__button/--exit" stroke="none" stroke-width="1" fill="none" fill-rule="evenodd">
        <path d="M20.5,8 C21.3284271,8 22,8.67157288 22,9.5 L22,14.3524831 L21.9816228,14.352048 L21.9830924,14.3681203 L21.9830924,14.3681203 L16.2835821,14.3681203 L16.2835821,12.4576726 C16.2835821,12.2004431 16.1281483,11.9680504 15.890625,11.8692864 C15.6525187,11.770639 15.3786147,11.8253265 15.1965952,12.0074627 L12.6492537,14.5548041 C12.4003032,14.8037547 12.4003032,15.2061567 12.6492537,15.4552239 L15.1965952,18.0024487 C15.3786147,18.1845849 15.6525187,18.239389 15.890625,18.140625 C16.1281483,18.0419776 16.2835821,17.8094683 16.2835821,17.5522388 L16.2835821,15.641791 L20.396,15.641 L20.5,15.6364136 L22,15.6364136 L22,19.8524831 C22,19.9635611 21.9879263,20.0718192 21.9650196,20.1760165 C21.9878177,20.2796927 22,20.3884237 22,20.5 C22,21.3284271 21.3284271,22 20.5,22 L15.3525816,22.001675 C15.2390497,22.0071449 15.1248054,22.0099114 15.0099114,22.0099114 C14.8955938,22.0099114 14.7819157,22.0071727 14.6689391,22.0017574 L9.5,22 C8.67157288,22 8,21.3284271 8,20.5 L8,9.5 C8,8.67157288 8.67157288,8 9.5,8 L20.5,8 Z" id="形状结合" fill="#6F7078" fill-rule="nonzero"></path>
    </g>
</svg>

<svg width="30" height="30" xmlns="http://www.w3.org/2000/svg">
    <path d="M20.5 8A1.5 1.5 0 0122 9.5v4.852h-.018l.001.016h-5.7v-1.91a.638.638 0 00-1.086-.45l-2.548 2.547a.636.636 0 000 .9l2.548 2.547a.636.636 0 001.087-.45v-1.91l4.112-.001.104-.005H22v4.216c0 .112-.012.22-.035.324A1.5 1.5 0 0120.5 22l-5.147.002a7.12 7.12 0 01-.684 0L9.5 22A1.5 1.5 0 018 20.5v-11A1.5 1.5 0 019.5 8h11z" fill="#6F7078"/>
</svg>
